X: 23450
T: Let Me Into The Parlour
R: jig
M: 6/8
K: Amajor
|:ece E2E|F2G A2c|BcB F2G|AGF E2c|
ece E2E|F2G A2c|BcB F2G|1 A3 A2c:|2 A3 e3||
|:d3 ded|cec cBA|B2B Bcd|e2c ABc|
d3 ded|cec cBA|BcB Bcd|1 e3 e2c:|2 e3 c2d||

